static/logos/maze-glyph-color.svg

<svg width="50" height="25" viewBox="0 0 50 25" fill="none" xmlns="http://www.w3.org/2000/svg">
<g clip-path="url(#clip0_1_2048)">
<path fill-rule="evenodd" clip-rule="evenodd" d="M2.34509 21.973C-0.781738 18.8727 -0.781689 13.8461 2.34519 10.7458L10.8379 2.32525C13.4812 -0.295597 17.5129 -0.700928 20.5856 1.10926C21.5361 1.66917 21.5278 2.95358 20.746 3.72867C19.9644 4.50375 18.6882 4.43704 17.6272 4.12933C16.2684 3.73531 14.7404 4.06956 13.6689 5.13207L5.17607 13.5526C3.61264 15.1028 3.61261 17.616 5.17603 19.1662C6.73948 20.7165 9.27437 20.7165 10.8378 19.1662L27.8231 2.32535C30.9501 -0.774953 36.0197 -0.774967 39.1467 2.32532L47.6395 10.7458C50.7664 13.846 50.7664 18.8727 47.6395 21.973C44.5126 25.0733 39.4429 25.0733 36.3159 21.973L33.4851 19.1662L29.9465 22.6748C27.3031 25.2956 23.2715 25.7009 20.1986 23.8907C19.2482 23.3308 19.2566 22.0465 20.0383 21.2714C20.82 20.4962 22.096 20.5629 23.1572 20.8706C24.5159 21.2647 26.044 20.9304 27.1155 19.8679L30.7553 16.2592C32.2629 14.7644 34.7072 14.7644 36.2149 16.2592L39.1469 19.1662C40.7103 20.7164 43.2451 20.7164 44.8085 19.1662C46.372 17.616 46.372 15.1028 44.8085 13.5526L36.3157 5.13217C34.7523 3.58202 32.2175 3.58203 30.6541 5.13219L13.6687 21.9731C10.5418 25.0734 5.47199 25.0734 2.34509 21.973Z" fill="black"/>
</g>
<defs>
<clipPath id="clip0_1_2048">
<rect width="50" height="25" fill="white"/>
</clipPath>
</defs>
</svg>

<svg xmlns="http://www.w3.org/2000/svg" width="128" height="64" fill="none" viewBox="0 0 50 25"><g clip-path="url(#a)"><path fill="#000" fill-rule="evenodd" d="M2.345 21.973a7.891 7.891 0 0 1 0-11.227l8.493-8.42c2.643-2.622 6.675-3.027 9.748-1.217.95.56.942 1.845.16 2.62-.782.775-2.058.708-3.119.4a4.026 4.026 0 0 0-3.958 1.003l-8.493 8.42a3.946 3.946 0 0 0 0 5.614 4.028 4.028 0 0 0 5.662 0l16.985-16.84c3.127-3.101 8.197-3.101 11.324 0l8.492 8.42a7.891 7.891 0 0 1 0 11.227c-3.126 3.1-8.196 3.1-11.323 0l-2.83-2.807-3.54 3.509c-2.643 2.62-6.675 3.026-9.747 1.216-.95-.56-.942-1.844-.16-2.62.781-.775 2.057-.708 3.118-.4a4.026 4.026 0 0 0 3.959-1.003l3.64-3.609a3.884 3.884 0 0 1 5.459 0l2.932 2.907a4.028 4.028 0 0 0 5.662 0 3.945 3.945 0 0 0 0-5.613l-8.493-8.42a4.028 4.028 0 0 0-5.662 0L13.67 21.972c-3.127 3.1-8.197 3.1-11.324 0Z" clip-rule="evenodd"/></g><defs><clipPath id="a"><path fill="#fff" d="M0 0h50v25H0z"/></clipPath></defs></svg>
